X:6808
T:The Gannon Road
R:jig
C:Paul S. Cranford
D:The Lighthouse, Cranford Publications
B:The Lighthouse Collection, ISBN 0-9691181-5-5
N:Contacts ...
N:..... Cranford Publications <http://www.cranfordpub.com>
Q:300
O:England
L:1/8
M:6/8
K:Dmix
A|ded c2 A|GFE D2 A|ded e2 f|gfe d2 A|
def gfe|afd c2 A|ded c2 A|GFE D2:|
|:e|fdf g2 e|age d2 e|fdf gfe|dcA c2 e|
fdf gfg|age dfb|age dfa|gfe d2:|
